Newaita-dark/apps/64/plank.svg

<?xml version="1.0" encoding="UTF-8"?>
<svg xmlns="http://www.w3.org/2000/svg" xmlns:xlink="http://www.w3.org/1999/xlink" width="64pt" height="64pt" viewBox="0 0 64 64" version="1.1">
<defs>
<linearGradient id="linear0" gradientUnits="userSpaceOnUse" x1="254" y1="233.5" x2="254" y2="254.666672" gradientTransform="matrix(0.125012,0,0,0.125012,-0.00000763012,26.877566)">
<stop offset="0" style="stop-color:rgb(0%,0%,0%);stop-opacity:0.27451;"/>
<stop offset="1" style="stop-color:rgb(0%,0%,0%);stop-opacity:0;"/>
</linearGradient>
<radialGradient id="radial0" gradientUnits="userSpaceOnUse" cx="450.908936" cy="189.579361" fx="450.908936" fy="189.579361" r="21.166656" gradientTransform="matrix(0.000000348341,-0.156265,-0.281277,-0.000000203077,106.907382,127.190661)">
<stop offset="0" style="stop-color:rgb(0%,0%,0%);stop-opacity:0.313725;"/>
<stop offset="0.222222" style="stop-color:rgb(0%,0%,0%);stop-opacity:0.27451;"/>
<stop offset="1" style="stop-color:rgb(0%,0%,0%);stop-opacity:0;"/>
</radialGradient>
<radialGradient id="radial1" gradientUnits="userSpaceOnUse" cx="450.908936" cy="189.579361" fx="450.908936" fy="189.579361" r="21.166656" gradientTransform="matrix(-0.000000348341,0.156265,0.281277,0.000000203077,-43.401323,-15.054962)">
<stop offset="0" style="stop-color:rgb(0%,0%,0%);stop-opacity:0.313725;"/>
<stop offset="0.222222" style="stop-color:rgb(0%,0%,0%);stop-opacity:0.27451;"/>
<stop offset="1" style="stop-color:rgb(0%,0%,0%);stop-opacity:0;"/>
</radialGradient>
<radialGradient id="radial2" gradientUnits="userSpaceOnUse" cx="450.908936" cy="189.579361" fx="450.908936" fy="189.579361" r="21.166656" gradientTransform="matrix(-0.000000348341,-0.156265,0.281277,-0.000000203077,-43.401323,127.190661)">
<stop offset="0" style="stop-color:rgb(0%,0%,0%);stop-opacity:0.313725;"/>
<stop offset="0.222222" style="stop-color:rgb(0%,0%,0%);stop-opacity:0.27451;"/>
<stop offset="1" style="stop-color:rgb(0%,0%,0%);stop-opacity:0;"/>
</radialGradient>
<radialGradient id="radial3" gradientUnits="userSpaceOnUse" cx="450.908936" cy="189.579361" fx="450.908936" fy="189.579361" r="21.166656" gradientTransform="matrix(0.000000348341,0.156265,-0.281277,0.000000203077,106.907378,-15.054963)">
<stop offset="0" style="stop-color:rgb(0%,0%,0%);stop-opacity:0.313725;"/>
<stop offset="0.222222" style="stop-color:rgb(0%,0%,0%);stop-opacity:0.27451;"/>
<stop offset="1" style="stop-color:rgb(0%,0%,0%);stop-opacity:0;"/>
</radialGradient>
<linearGradient id="linear1" gradientUnits="userSpaceOnUse" x1="306.916656" y1="-25.791676" x2="305.954559" y2="-135.329163" gradientTransform="matrix(0.150699,0,0,0.434824,-11.708026,67.282696)">
<stop offset="0" style="stop-color:rgb(25.882353%,25.882353%,25.882353%);stop-opacity:1;"/>
<stop offset="1" style="stop-color:rgb(38.039216%,38.039216%,38.039216%);stop-opacity:1;"/>
</linearGradient>
<linearGradient id="linear2" gradientUnits="userSpaceOnUse" x1="306.916656" y1="-25.791676" x2="305.954559" y2="-135.329163" gradientTransform="matrix(1.20548,0,0,3.478261,-93.655266,323.210175)">
<stop offset="0" style="stop-color:rgb(69.019608%,74.509804%,77.254902%);stop-opacity:1;"/>
<stop offset="1" style="stop-color:rgb(81.176471%,84.705882%,86.27451%);stop-opacity:1;"/>
</linearGradient>
<linearGradient id="linear3" gradientUnits="userSpaceOnUse" x1="461.433289" y1="115.495773" x2="461.433289" y2="189.579147" gradientTransform="matrix(0.156265,0,0,0.178588,-57.552393,17.58057)">
<stop offset="0" style="stop-color:rgb(89.803922%,45.098039%,45.098039%);stop-opacity:1;"/>
<stop offset="1" style="stop-color:rgb(93.72549%,32.54902%,31.372549%);stop-opacity:1;"/>
</linearGradient>
<linearGradient id="linear4" gradientUnits="userSpaceOnUse" x1="461.433289" y1="115.495773" x2="461.433289" y2="189.579147" gradientTransform="matrix(0.156265,0,0,0.178588,-40.352829,17.58057)">
<stop offset="0" style="stop-color:rgb(50.588235%,78.039216%,51.764706%);stop-opacity:1;"/>
<stop offset="1" style="stop-color:rgb(40%,73.333333%,41.568627%);stop-opacity:1;"/>
</linearGradient>
<linearGradient id="linear5" gradientUnits="userSpaceOnUse" x1="461.433289" y1="115.495773" x2="461.433289" y2="189.579147" gradientTransform="matrix(0.156265,0,0,0.178588,-23.153273,17.58057)">
<stop offset="0" style="stop-color:rgb(39.215686%,70.980392%,96.470588%);stop-opacity:1;"/>
<stop offset="1" style="stop-color:rgb(25.882353%,64.705882%,96.078431%);stop-opacity:1;"/>
</linearGradient>
</defs>
<g id="surface1">
<path style=" stroke:none;fill-rule:nonzero;fill:url(#linear0);" d="M 9.261719 56.066406 L 54.246094 56.066406 L 54.246094 58.714844 L 9.261719 58.714844 Z M 9.261719 56.066406 "/>
<path style=" stroke:none;fill-rule:nonzero;fill:url(#radial0);" d="M 54.246094 56.066406 L 59.535156 56.066406 L 59.535156 53.421875 L 54.246094 53.421875 Z M 54.246094 56.066406 "/>
<path style=" stroke:none;fill-rule:nonzero;fill:url(#radial1);" d="M 9.261719 56.066406 L 3.96875 56.066406 L 3.96875 58.714844 L 9.261719 58.714844 Z M 9.261719 56.066406 "/>
<path style=" stroke:none;fill-rule:nonzero;fill:url(#radial2);" d="M 9.261719 56.066406 L 3.96875 56.066406 L 3.96875 53.421875 L 9.261719 53.421875 Z M 9.261719 56.066406 "/>
<path style=" stroke:none;fill-rule:nonzero;fill:url(#radial3);" d="M 54.246094 56.066406 L 59.535156 56.066406 L 59.535156 58.714844 L 54.246094 58.714844 Z M 54.246094 56.066406 "/>
<path style=" stroke:none;fill-rule:nonzero;fill:url(#linear1);" d="M 6.613281 8.4375 L 56.890625 8.4375 C 58.351562 8.4375 59.535156 9.621094 59.535156 11.085938 L 59.535156 53.421875 C 59.535156 54.882812 58.351562 56.066406 56.890625 56.066406 L 6.613281 56.066406 C 5.152344 56.066406 3.96875 54.882812 3.96875 53.421875 L 3.96875 11.085938 C 3.96875 9.621094 5.152344 8.4375 6.613281 8.4375 Z M 6.613281 8.4375 "/>
<path style="fill-rule:nonzero;fill:url(#linear2);stroke-width:3;stroke-linecap:round;stroke-linejoin:miter;stroke:rgb(12.941177%,12.941177%,12.941177%);stroke-opacity:1;stroke-miterlimit:4;" d="M 52.901198 233.488421 C 41.183567 233.488421 31.746968 224.051823 31.746968 212.334192 L 31.746968 148.840255 L 476.235772 148.840255 L 476.235772 212.334192 C 476.235772 224.051823 466.799173 233.488421 455.081542 233.488421 Z M 52.901198 233.488421 " transform="matrix(0.125012,0,0,0.125012,0,26.877566)"/>
<path style=" stroke:none;fill-rule:nonzero;fill:rgb(0%,0%,0%);fill-opacity:0.235294;" d="M 6.613281 56.09375 C 5.148438 56.09375 3.96875 54.914062 3.96875 53.449219 L 3.96875 52.761719 C 3.96875 54.226562 5.148438 55.40625 6.613281 55.40625 L 56.890625 55.40625 C 58.355469 55.40625 59.535156 54.226562 59.535156 52.761719 L 59.535156 53.449219 C 59.535156 54.914062 58.355469 56.09375 56.890625 56.09375 Z M 6.613281 56.09375 "/>
<path style=" stroke:none;fill-rule:nonzero;fill:rgb(100%,100%,100%);fill-opacity:0.392157;" d="M 6.613281 8.589844 C 5.148438 8.589844 3.96875 9.769531 3.96875 11.238281 L 3.96875 11.925781 C 3.96875 10.457031 5.148438 9.277344 6.613281 9.277344 L 56.890625 9.277344 C 58.355469 9.277344 59.535156 10.457031 59.535156 11.925781 L 59.535156 11.238281 C 59.535156 9.769531 58.355469 8.589844 56.890625 8.589844 Z M 6.613281 8.589844 "/>
<path style=" stroke:none;fill-rule:nonzero;fill:rgb(12.941177%,12.941177%,12.941177%);fill-opacity:1;" d="M 6.613281 8.25 C 5.046875 8.25 3.78125 9.519531 3.78125 11.085938 L 3.78125 53.421875 C 3.78125 54.988281 5.046875 56.253906 6.613281 56.253906 L 56.890625 56.253906 C 58.457031 56.253906 59.722656 54.988281 59.722656 53.421875 L 59.722656 11.085938 C 59.722656 9.519531 58.457031 8.25 56.890625 8.25 Z M 6.613281 8.625 L 56.890625 8.625 C 58.257812 8.625 59.347656 9.71875 59.347656 11.085938 L 59.347656 53.421875 C 59.347656 54.789062 58.257812 55.878906 56.890625 55.878906 L 6.613281 55.878906 C 5.25 55.878906 4.15625 54.789062 4.15625 53.421875 L 4.15625 11.085938 C 4.15625 9.71875 5.25 8.625 6.613281 8.625 Z M 6.613281 8.625 "/>
<path style=" stroke:none;fill-rule:nonzero;fill:url(#linear3);" d="M 10.585938 38.207031 L 18.523438 38.207031 C 19.984375 38.207031 21.167969 39.390625 21.167969 40.851562 L 21.167969 48.792969 C 21.167969 50.253906 19.984375 51.4375 18.523438 51.4375 L 10.585938 51.4375 C 9.121094 51.4375 7.9375 50.253906 7.9375 48.792969 L 7.9375 40.851562 C 7.9375 39.390625 9.121094 38.207031 10.585938 38.207031 Z M 10.585938 38.207031 "/>
<path style=" stroke:none;fill-rule:nonzero;fill:url(#linear4);" d="M 27.785156 38.207031 L 35.722656 38.207031 C 37.183594 38.207031 38.367188 39.390625 38.367188 40.851562 L 38.367188 48.792969 C 38.367188 50.253906 37.183594 51.4375 35.722656 51.4375 L 27.785156 51.4375 C 26.324219 51.4375 25.136719 50.253906 25.136719 48.792969 L 25.136719 40.851562 C 25.136719 39.390625 26.324219 38.207031 27.785156 38.207031 Z M 27.785156 38.207031 "/>
<path style=" stroke:none;fill-rule:nonzero;fill:url(#linear5);" d="M 44.984375 38.207031 L 52.921875 38.207031 C 54.382812 38.207031 55.566406 39.390625 55.566406 40.851562 L 55.566406 48.792969 C 55.566406 50.253906 54.382812 51.4375 52.921875 51.4375 L 44.984375 51.4375 C 43.523438 51.4375 42.335938 50.253906 42.335938 48.792969 L 42.335938 40.851562 C 42.335938 39.390625 43.523438 38.207031 44.984375 38.207031 Z M 44.984375 38.207031 "/>
<path style=" stroke:none;fill-rule:nonzero;fill:rgb(100%,100%,100%);fill-opacity:0.392157;" d="M 10.585938 38.207031 C 9.117188 38.207031 7.9375 39.386719 7.9375 40.851562 L 7.9375 41.515625 C 7.9375 40.046875 9.117188 38.867188 10.585938 38.867188 L 18.523438 38.867188 C 19.988281 38.867188 21.167969 40.046875 21.167969 41.515625 L 21.167969 40.851562 C 21.167969 39.386719 19.988281 38.207031 18.523438 38.207031 Z M 27.785156 38.207031 C 26.316406 38.207031 25.136719 39.386719 25.136719 40.851562 L 25.136719 41.515625 C 25.136719 40.046875 26.316406 38.867188 27.785156 38.867188 L 35.722656 38.867188 C 37.1875 38.867188 38.367188 40.046875 38.367188 41.515625 L 38.367188 40.851562 C 38.367188 39.386719 37.1875 38.207031 35.722656 38.207031 Z M 44.984375 38.207031 C 43.515625 38.207031 42.335938 39.386719 42.335938 40.851562 L 42.335938 41.515625 C 42.335938 40.046875 43.515625 38.867188 44.984375 38.867188 L 52.921875 38.867188 C 54.386719 38.867188 55.566406 40.046875 55.566406 41.515625 L 55.566406 40.851562 C 55.566406 39.386719 54.386719 38.207031 52.921875 38.207031 Z M 44.984375 38.207031 "/>
<path style=" stroke:none;fill-rule:nonzero;fill:rgb(0%,0%,0%);fill-opacity:0.235294;" d="M 10.585938 51.4375 C 9.117188 51.4375 7.9375 50.257812 7.9375 48.792969 L 7.9375 48.128906 C 7.9375 49.59375 9.117188 50.777344 10.585938 50.777344 L 18.523438 50.777344 C 19.988281 50.777344 21.167969 49.59375 21.167969 48.128906 L 21.167969 48.792969 C 21.167969 50.257812 19.988281 51.4375 18.523438 51.4375 Z M 27.785156 51.4375 C 26.316406 51.4375 25.136719 50.257812 25.136719 48.792969 L 25.136719 48.128906 C 25.136719 49.59375 26.316406 50.777344 27.785156 50.777344 L 35.722656 50.777344 C 37.1875 50.777344 38.367188 49.59375 38.367188 48.128906 L 38.367188 48.792969 C 38.367188 50.257812 37.1875 51.4375 35.722656 51.4375 Z M 44.984375 51.4375 C 43.515625 51.4375 42.335938 50.257812 42.335938 48.792969 L 42.335938 48.128906 C 42.335938 49.59375 43.515625 50.777344 44.984375 50.777344 L 52.921875 50.777344 C 54.386719 50.777344 55.566406 49.59375 55.566406 48.128906 L 55.566406 48.792969 C 55.566406 50.257812 54.386719 51.4375 52.921875 51.4375 Z M 44.984375 51.4375 "/>
<path style=" stroke:none;fill-rule:nonzero;fill:rgb(12.941177%,12.941177%,12.941177%);fill-opacity:1;" d="M 10.585938 38.019531 C 9.019531 38.019531 7.75 39.285156 7.75 40.851562 L 7.75 48.792969 C 7.75 50.359375 9.019531 51.625 10.585938 51.625 L 18.523438 51.625 C 20.089844 51.625 21.355469 50.359375 21.355469 48.792969 L 21.355469 40.851562 C 21.355469 39.285156 20.089844 38.019531 18.523438 38.019531 Z M 10.585938 38.394531 L 18.523438 38.394531 C 19.886719 38.394531 20.980469 39.488281 20.980469 40.851562 L 20.980469 48.792969 C 20.980469 50.15625 19.886719 51.25 18.523438 51.25 L 10.585938 51.25 C 9.21875 51.25 8.125 50.15625 8.125 48.792969 L 8.125 40.851562 C 8.125 39.488281 9.21875 38.394531 10.585938 38.394531 Z M 10.585938 38.394531 "/>
<path style=" stroke:none;fill-rule:nonzero;fill:rgb(12.941177%,12.941177%,12.941177%);fill-opacity:1;" d="M 27.785156 38.019531 C 26.21875 38.019531 24.949219 39.285156 24.949219 40.851562 L 24.949219 48.792969 C 24.949219 50.359375 26.21875 51.625 27.785156 51.625 L 35.722656 51.625 C 37.289062 51.625 38.554688 50.359375 38.554688 48.792969 L 38.554688 40.851562 C 38.554688 39.285156 37.289062 38.019531 35.722656 38.019531 Z M 27.785156 38.394531 L 35.722656 38.394531 C 37.085938 38.394531 38.179688 39.488281 38.179688 40.851562 L 38.179688 48.792969 C 38.179688 50.15625 37.085938 51.25 35.722656 51.25 L 27.785156 51.25 C 26.417969 51.25 25.324219 50.15625 25.324219 48.792969 L 25.324219 40.851562 C 25.324219 39.488281 26.417969 38.394531 27.785156 38.394531 Z M 27.785156 38.394531 "/>
<path style=" stroke:none;fill-rule:nonzero;fill:rgb(12.941177%,12.941177%,12.941177%);fill-opacity:1;" d="M 44.984375 38.019531 C 43.417969 38.019531 42.148438 39.285156 42.148438 40.851562 L 42.148438 48.792969 C 42.148438 50.359375 43.417969 51.625 44.984375 51.625 L 52.921875 51.625 C 54.488281 51.625 55.753906 50.359375 55.753906 48.792969 L 55.753906 40.851562 C 55.753906 39.285156 54.488281 38.019531 52.921875 38.019531 Z M 44.984375 38.394531 L 52.921875 38.394531 C 54.285156 38.394531 55.378906 39.488281 55.378906 40.851562 L 55.378906 48.792969 C 55.378906 50.15625 54.285156 51.25 52.921875 51.25 L 44.984375 51.25 C 43.617188 51.25 42.523438 50.15625 42.523438 48.792969 L 42.523438 40.851562 C 42.523438 39.488281 43.617188 38.394531 44.984375 38.394531 Z M 44.984375 38.394531 "/>
</g>
</svg>

<svg xmlns="http://www.w3.org/2000/svg" width="64pt" height="64pt" viewBox="0 0 64 64"><defs><linearGradient id="a" gradientUnits="userSpaceOnUse" x1="254" y1="233.5" x2="254" y2="254.667" gradientTransform="translate(0 26.878) scale(.12501)"><stop offset="0" stop-opacity=".275"/><stop offset="1" stop-opacity="0"/></linearGradient><radialGradient id="b" gradientUnits="userSpaceOnUse" cx="450.909" cy="189.579" fx="450.909" fy="189.579" r="21.167" gradientTransform="matrix(0 -.15626 -.28128 0 106.907 127.19)"><stop offset="0" stop-opacity=".314"/><stop offset=".222" stop-opacity=".275"/><stop offset="1" stop-opacity="0"/></radialGradient><radialGradient id="c" gradientUnits="userSpaceOnUse" cx="450.909" cy="189.579" fx="450.909" fy="189.579" r="21.167" gradientTransform="matrix(0 .15626 .28128 0 -43.401 -15.055)"><stop offset="0" stop-opacity=".314"/><stop offset=".222" stop-opacity=".275"/><stop offset="1" stop-opacity="0"/></radialGradient><radialGradient id="d" gradientUnits="userSpaceOnUse" cx="450.909" cy="189.579" fx="450.909" fy="189.579" r="21.167" gradientTransform="matrix(0 -.15626 .28128 0 -43.401 127.19)"><stop offset="0" stop-opacity=".314"/><stop offset=".222" stop-opacity=".275"/><stop offset="1" stop-opacity="0"/></radialGradient><radialGradient id="e" gradientUnits="userSpaceOnUse" cx="450.909" cy="189.579" fx="450.909" fy="189.579" r="21.167" gradientTransform="matrix(0 .15626 -.28128 0 106.907 -15.055)"><stop offset="0" stop-opacity=".314"/><stop offset=".222" stop-opacity=".275"/><stop offset="1" stop-opacity="0"/></radialGradient><linearGradient id="f" gradientUnits="userSpaceOnUse" x1="306.917" y1="-25.792" x2="305.955" y2="-135.329" gradientTransform="matrix(.1507 0 0 .43482 -11.708 67.283)"><stop offset="0" stop-color="#424242"/><stop offset="1" stop-color="#616161"/></linearGradient><linearGradient id="g" gradientUnits="userSpaceOnUse" x1="306.917" y1="-25.792" x2="305.955" y2="-135.329" gradientTransform="matrix(1.20548 0 0 3.47826 -93.655 323.21)"><stop offset="0" stop-color="#b0bec5"/><stop offset="1" stop-color="#cfd8dc"/></linearGradient><linearGradient id="h" gradientUnits="userSpaceOnUse" x1="461.433" y1="115.496" x2="461.433" y2="189.579" gradientTransform="matrix(.15626 0 0 .17859 -57.552 17.58)"><stop offset="0" stop-color="#e57373"/><stop offset="1" stop-color="#ef5350"/></linearGradient><linearGradient id="i" gradientUnits="userSpaceOnUse" x1="461.433" y1="115.496" x2="461.433" y2="189.579" gradientTransform="matrix(.15626 0 0 .17859 -40.353 17.58)"><stop offset="0" stop-color="#81c784"/><stop offset="1" stop-color="#66bb6a"/></linearGradient><linearGradient id="j" gradientUnits="userSpaceOnUse" x1="461.433" y1="115.496" x2="461.433" y2="189.579" gradientTransform="matrix(.15626 0 0 .17859 -23.153 17.58)"><stop offset="0" stop-color="#64b5f6"/><stop offset="1" stop-color="#42a5f5"/></linearGradient></defs><path d="M9.262 56.066h44.984v2.649H9.262zm0 0" fill="url(#a)"/><path d="M54.246 56.066h5.29v-2.644h-5.29zm0 0" fill="url(#b)"/><path d="M9.262 56.066H3.969v2.649h5.293zm0 0" fill="url(#c)"/><path d="M9.262 56.066H3.969v-2.644h5.293zm0 0" fill="url(#d)"/><path d="M54.246 56.066h5.29v2.649h-5.29zm0 0" fill="url(#e)"/><path d="M6.613 8.438h50.278a2.645 2.645 0 0 1 2.644 2.648v42.336a2.644 2.644 0 0 1-2.644 2.644H6.613a2.644 2.644 0 0 1-2.644-2.644V11.086a2.645 2.645 0 0 1 2.644-2.649zm0 0" fill="url(#f)"/><path d="M52.901 233.488a21.11 21.11 0 0 1-21.154-21.154V148.84h444.489v63.494a21.11 21.11 0 0 1-21.154 21.154zm0 0" transform="translate(0 26.878) scale(.12501)" fill="url(#g)" stroke-width="3" stroke-linecap="round" stroke="#212121"/><path d="M6.613 56.094a2.639 2.639 0 0 1-2.644-2.645v-.687a2.639 2.639 0 0 0 2.644 2.644h50.278a2.639 2.639 0 0 0 2.644-2.644v.687a2.639 2.639 0 0 1-2.644 2.645zm0 0" fill-opacity=".235"/><path d="M6.613 8.59a2.64 2.64 0 0 0-2.644 2.648v.688a2.64 2.64 0 0 1 2.644-2.649h50.278a2.64 2.64 0 0 1 2.644 2.649v-.688a2.64 2.64 0 0 0-2.644-2.648zm0 0" fill="#fff" fill-opacity=".392"/><path d="M6.613 8.25a2.832 2.832 0 0 0-2.832 2.836v42.336a2.83 2.83 0 0 0 2.832 2.832h50.278a2.83 2.83 0 0 0 2.832-2.832V11.086A2.832 2.832 0 0 0 56.89 8.25zm0 .375h50.278a2.447 2.447 0 0 1 2.457 2.46v42.337a2.444 2.444 0 0 1-2.457 2.457H6.613a2.447 2.447 0 0 1-2.457-2.457V11.086a2.45 2.45 0 0 1 2.457-2.461zm0 0" fill="#212121"/><path d="M10.586 38.207h7.937a2.644 2.644 0 0 1 2.645 2.645v7.941a2.644 2.644 0 0 1-2.645 2.645h-7.937a2.645 2.645 0 0 1-2.649-2.645v-7.941a2.645 2.645 0 0 1 2.649-2.645zm0 0" fill="url(#h)"/><path d="M27.785 38.207h7.938a2.644 2.644 0 0 1 2.644 2.645v7.941a2.644 2.644 0 0 1-2.644 2.645h-7.938a2.647 2.647 0 0 1-2.648-2.645v-7.941a2.647 2.647 0 0 1 2.648-2.645zm0 0" fill="url(#i)"/><path d="M44.984 38.207h7.938a2.644 2.644 0 0 1 2.644 2.645v7.941a2.644 2.644 0 0 1-2.644 2.645h-7.938a2.647 2.647 0 0 1-2.648-2.645v-7.941a2.647 2.647 0 0 1 2.648-2.645zm0 0" fill="url(#j)"/><path d="M10.586 38.207a2.64 2.64 0 0 0-2.649 2.645v.664a2.64 2.64 0 0 1 2.649-2.649h7.937a2.64 2.64 0 0 1 2.645 2.649v-.664a2.639 2.639 0 0 0-2.645-2.645zm17.2 0a2.64 2.64 0 0 0-2.65 2.645v.664a2.64 2.64 0 0 1 2.65-2.649h7.937a2.64 2.64 0 0 1 2.644 2.649v-.664a2.639 2.639 0 0 0-2.644-2.645zm17.198 0a2.64 2.64 0 0 0-2.648 2.645v.664a2.64 2.64 0 0 1 2.648-2.649h7.938a2.64 2.64 0 0 1 2.644 2.649v-.664a2.639 2.639 0 0 0-2.644-2.645zm0 0" fill="#fff" fill-opacity=".392"/><path d="M10.586 51.438a2.64 2.64 0 0 1-2.649-2.645v-.664a2.643 2.643 0 0 0 2.649 2.648h7.937a2.642 2.642 0 0 0 2.645-2.648v.664a2.639 2.639 0 0 1-2.645 2.645zm17.2 0a2.64 2.64 0 0 1-2.65-2.645v-.664a2.643 2.643 0 0 0 2.65 2.648h7.937a2.642 2.642 0 0 0 2.644-2.648v.664a2.639 2.639 0 0 1-2.644 2.645zm17.198 0a2.64 2.64 0 0 1-2.648-2.645v-.664a2.643 2.643 0 0 0 2.648 2.648h7.938a2.642 2.642 0 0 0 2.644-2.648v.664a2.639 2.639 0 0 1-2.644 2.645zm0 0" fill-opacity=".235"/><path d="M10.586 38.02a2.832 2.832 0 0 0-2.836 2.832v7.941a2.832 2.832 0 0 0 2.836 2.832h7.937a2.83 2.83 0 0 0 2.832-2.832v-7.941a2.83 2.83 0 0 0-2.832-2.832zm0 .375h7.937a2.449 2.449 0 0 1 2.457 2.457v7.941a2.449 2.449 0 0 1-2.457 2.457h-7.937a2.45 2.45 0 0 1-2.461-2.457v-7.941a2.45 2.45 0 0 1 2.46-2.457zm0 0M27.785 38.02a2.832 2.832 0 0 0-2.836 2.832v7.941a2.832 2.832 0 0 0 2.836 2.832h7.938a2.83 2.83 0 0 0 2.832-2.832v-7.941a2.83 2.83 0 0 0-2.832-2.832zm0 .375h7.938a2.449 2.449 0 0 1 2.457 2.457v7.941a2.449 2.449 0 0 1-2.457 2.457h-7.938a2.45 2.45 0 0 1-2.46-2.457v-7.941a2.45 2.45 0 0 1 2.46-2.457zm0 0M44.984 38.02a2.832 2.832 0 0 0-2.836 2.832v7.941a2.832 2.832 0 0 0 2.836 2.832h7.938a2.83 2.83 0 0 0 2.832-2.832v-7.941a2.83 2.83 0 0 0-2.832-2.832zm0 .375h7.938a2.449 2.449 0 0 1 2.457 2.457v7.941a2.449 2.449 0 0 1-2.457 2.457h-7.938a2.45 2.45 0 0 1-2.46-2.457v-7.941a2.45 2.45 0 0 1 2.46-2.457zm0 0" fill="#212121"/></svg>
